lib/flags/m/GT.svg

<svg xmlns="http://www.w3.org/2000/svg" fill="none" viewBox="0 0 20 15"><mask id="GT_svg__a" width="20" height="15" x="0" y="0" mask-type="alpha" maskUnits="userSpaceOnUse"><path fill="#fff" d="M0 0H20V15H0z"/></mask><g mask="url(#GT_svg__a)"><path fill="#58A5FF" fill-rule="evenodd" d="M14 0H20V15H14V0zM0 0H6V15H0V0z" clip-rule="evenodd"/><path fill="#fff" fill-rule="evenodd" d="M6 0H14V15H6V0Z" clip-rule="evenodd"/><path fill="#C6C6C6" d="M7.97782 10.6484L7.52374 10.219L12.3284 5.13892L12.7825 5.56838L7.97782 10.6484Z"/><path fill="#5AB92D" fill-rule="evenodd" d="M8.11548 5.06592C8.11548 5.06592 6.57742 5.99415 6.57742 8.32114C6.57742 10.6481 10.322 10.9629 10.322 10.9629C10.322 10.9629 8.08112 9.59614 7.78784 8.61764C7.49455 7.63915 8.11548 5.06592 8.11548 5.06592Z" clip-rule="evenodd"/><path fill="#5AB92D" fill-rule="evenodd" d="M11.9089 5.06592C11.9089 5.06592 13.447 5.99415 13.447 8.32114C13.447 10.6481 9.70243 10.9629 9.70243 10.9629C9.70243 10.9629 12.0573 9.61243 12.3873 8.32114C12.7174 7.02985 11.9089 5.06592 11.9089 5.06592Z" clip-rule="evenodd"/><path fill="#5AB92D" d="M9.2548 4.74976L9.87724 4.80625C9.85677 5.03177 9.97996 5.26131 10.2846 5.50767C11.265 6.30063 11.7919 7.28978 11.379 8.41382C11.0793 9.22945 10.6723 9.91813 10.1573 10.4775L9.69751 10.0542C10.1548 9.55747 10.5199 8.93964 10.7923 8.19828C11.0889 7.39096 10.6875 6.63737 9.89153 5.99362C9.43803 5.62683 9.21321 5.20794 9.2548 4.74976Z"/><path fill="#EFE298" fill-rule="evenodd" d="M8.85864 6.13057L9.51443 7.98442H9.03238C9.03238 7.98442 8.85864 8.56946 9.18654 8.56946C9.51443 8.56946 11.2042 8.56946 11.2042 8.56946C11.2042 8.56946 11.4239 8.42277 11.314 7.98442C11.2042 7.54607 10.6492 6.33599 10.6492 6.33599C10.6492 6.33599 10.8863 6.13517 10.8863 5.9863C10.8863 5.83744 10.6492 5.82104 10.6492 5.82104H9.15225C8.96118 5.85407 8.85864 6.13057 8.85864 6.13057Z" clip-rule="evenodd"/></g></svg>

<svg xmlns="http://www.w3.org/2000/svg" fill="none" viewBox="0 0 20 15"><mask id="GT_svg__a" width="20" height="15" x="0" y="0" maskUnits="userSpaceOnUse"><path fill="#fff" d="M0 0h20v15H0z"/></mask><g mask="url(#GT_svg__a)"><path fill="#58A5FF" fill-rule="evenodd" d="M14 0h6v15h-6V0zM0 0h6v15H0V0z" clip-rule="evenodd"/><path fill="#fff" fill-rule="evenodd" d="M6 0h8v15H6V0z" clip-rule="evenodd"/><path fill="#C6C6C6" d="M7.978 10.648l-.454-.43 4.804-5.08.455.43-4.805 5.08z"/><path fill="#5AB92D" fill-rule="evenodd" d="M8.115 5.066s-1.538.928-1.538 3.255 3.745 2.642 3.745 2.642-2.24-1.367-2.534-2.345c-.293-.979.327-3.552.327-3.552z" clip-rule="evenodd"/><path fill="#5AB92D" fill-rule="evenodd" d="M11.909 5.066s1.538.928 1.538 3.255-3.745 2.642-3.745 2.642 2.355-1.35 2.685-2.642c.33-1.291-.478-3.255-.478-3.255z" clip-rule="evenodd"/><path fill="#5AB92D" d="M9.255 4.75l.622.056c-.02.226.103.455.408.702.98.793 1.507 1.782 1.094 2.906-.3.815-.707 1.504-1.222 2.063l-.46-.423c.458-.497.823-1.114 1.095-1.856.297-.807-.104-1.56-.9-2.204-.454-.367-.679-.786-.637-1.244z"/><path fill="#EFE298" fill-rule="evenodd" d="M8.859 6.13l.655 1.854h-.482s-.173.585.155.585h2.017s.22-.146.11-.585c-.11-.438-.665-1.648-.665-1.648s.237-.2.237-.35c0-.149-.237-.165-.237-.165H9.152c-.19.033-.293.31-.293.31z" clip-rule="evenodd"/></g></svg>
